X: 32815
T: Popcorn Behaviour
R: reel
M: 4/4
K: Aminor
|a2 ef ecAc|ABBc BGAG|FdAF cAGB|ABc/c/d egdg|
^gaef ecAc|ABBc BGAG|DFAc dcAG|EDCB, A,Ceg|
aaef ecAc|ABBc BGAG|FdAF cAGB|ABc/c/d egdg|
^gaef ecAc|ABBc BGAG|DFAc dcAG|EDCB, A,FF/F/F|
EA,A,E FA,A,F|EA,CE DCB,C|A,B,CD EDCD|F/^F/GAB cBAG|
EA,A,/A,/A, FA,FA,|^FA,A,F =FA,FE|DFAc dcAG|EDCB, A,FF/F/F|
EA,A,E FA,A,F|EA,CE DCB,C|A,B,CD EDCD|F/^F/GAB cBAG|
EA,A,E FA,A,F|^FA,A,F =FA,FE|DFAc dcAG|EDCB, A,2e^g|

